X: 298
T: Dulaman na Binne Bui
M: 4/4
L: 1/8
R: strashpey
K: Amix
a>f | e<A B>A G>A B>d | e<A B>A G>A A>a | e<A B>A G>A B>d | (3efg d>B A>g f>b |
e<A B>A G>A B>d | e<A B>A G>A A>a | e<A B>A G>A B>d | (3efg d>B A2 c>d |
e<a a>g (3aaa g>e | d>B G>A B<G B>d | (3efg f>a g>b g>d | (3efg d>B A2 c>d |
e<a a>g (3aaa g>e | d>B G>A B<G B>d | (3efg f>a g>b g>d | (3efg d>B A4 |] 
F: Transcription by myself

